X: 1024
T: Parthenia.
%R: jig
B: Henry Playford "Apollo's Banquet", London 1687 (5th Edition)
F: https://archive.org/details/apollosbanquetco01rugg
Z: 2017 John Chambers <jc:trillian.mit.edu>
M: 6/4
L: 1/4
K: D
% - - - - - - - - - -
A |\
d2e f2g | a3 b3 |\
a>gf e2f | g3 f3 |\
e>dc d2e | A3- A2 :: f |\
e>dc d2e |
e3- e2f |\
e>dc d2e | a3- a2f |\
e>dc B2c | d2e f2b |\
abf e2d | d3- d2 |]
% - - - - - - - - - -

%%sep 1 1 500
%%sep 1 1 500

